resources/img/scalable/actions/flypie-edit-advanced-symbolic.svg

<?xml version="1.0" encoding="UTF-8" standalone="no"?>
<svg
   xmlns:dc="http://purl.org/dc/elements/1.1/"
   xmlns:cc="http://creativecommons.org/ns#"
   xmlns:rdf="http://www.w3.org/1999/02/22-rdf-syntax-ns#"
   xmlns:svg="http://www.w3.org/2000/svg"
   xmlns="http://www.w3.org/2000/svg"
   xmlns:sodipodi="http://sodipodi.sourceforge.net/DTD/sodipodi-0.dtd"
   xmlns:inkscape="http://www.inkscape.org/namespaces/inkscape"
   width="16"
   height="16"
   version="1.1"
   id="svg881"
   sodipodi:docname="flypie-edit-advanced-symbolic.svg"
   inkscape:version="1.0.2 (e86c870879, 2021-01-15)">
  <metadata
     id="metadata887">
    <rdf:RDF>
      <cc:Work
         rdf:about="">
        <dc:format>image/svg+xml</dc:format>
        <dc:type
           rdf:resource="http://purl.org/dc/dcmitype/StillImage" />
        <dc:title></dc:title>
      </cc:Work>
    </rdf:RDF>
  </metadata>
  <defs
     id="defs885" />
  <sodipodi:namedview
     pagecolor="#ffffff"
     bordercolor="#666666"
     borderopacity="1"
     objecttolerance="10"
     gridtolerance="10"
     guidetolerance="10"
     inkscape:pageopacity="0"
     inkscape:pageshadow="2"
     inkscape:window-width="1920"
     inkscape:window-height="1131"
     id="namedview883"
     showgrid="true"
     inkscape:zoom="32.482718"
     inkscape:cx="10.367124"
     inkscape:cy="8.8579974"
     inkscape:window-x="0"
     inkscape:window-y="0"
     inkscape:window-maximized="1"
     inkscape:current-layer="svg881"
     inkscape:document-rotation="0"
     showguides="false"
     inkscape:guide-bbox="true"
     inkscape:snap-bbox="true"
     inkscape:snap-bbox-midpoints="true"
     inkscape:snap-center="true"
     inkscape:snap-global="false">
    <inkscape:grid
       type="xygrid"
       id="grid900" />
  </sodipodi:namedview>
  <path
     d="M 11.46259,8.7854492 C 11.235952,8.407857 11.181931,7.9840098 11.299816,7.5142042 11.484556,7.0614287 11.76572,6.7217288 12.1438,6.4953603 c 0.419925,-0.2512434 0.897923,-0.3102386 1.434851,-0.1753899 0.578904,0.1093702 0.994068,0.3741044 1.245457,0.7937031 0.201315,0.3360764 0.213078,0.7846742 0.03746,1.3466619 -0.134809,0.5366233 -0.390607,0.9185399 -0.768458,1.1448084 -1.049249,0.6284802 -1.925881,0.3551421 -2.629859,-0.8198492 z"
     style="font-style:normal;font-variant:normal;font-weight:normal;font-stretch:normal;font-size:10.5833px;line-height:125%;font-family:'Amatic SC';-inkscape-font-specification:'Amatic SC';letter-spacing:0px;word-spacing:0px;opacity:1;fill:#2c2c2c;fill-opacity:1;stroke:none;stroke-width:5.87708px;stroke-linecap:butt;stroke-linejoin:miter;stroke-opacity:1"
     id="path838"
     inkscape:connector-curvature="0"
     sodipodi:nodetypes="ccscscscc" />
  <path
     d="M 6.3322651,7.399835 C 6.1063107,7.7762876 6.0524535,8.1988556 6.169982,8.6672434 6.3541647,9.1186524 6.6344806,9.4573271 7.0114197,9.6830124 7.4300771,9.9334972 7.9066323,9.9923148 8.4419399,9.8578733 9.0190971,9.748833 9.4330074,9.4848977 9.6836378,9.0665653 9.8843449,8.7315032 9.8960724,8.2842593 9.7209804,7.7239676 9.5865789,7.1889639 9.3315533,6.8081998 8.9548419,6.5826143 7.9087597,5.9560309 7.034773,6.228544 6.3329201,7.3999891 Z"
     style="font-style:normal;font-variant:normal;font-weight:normal;font-stretch:normal;font-size:10.5833px;line-height:125%;font-family:'Amatic SC';-inkscape-font-specification:'Amatic SC';letter-spacing:0px;word-spacing:0px;opacity:1;fill:#2c2c2c;fill-opacity:1;stroke:none;stroke-width:5.87708px;stroke-linecap:butt;stroke-linejoin:miter;stroke-opacity:1"
     id="path3489"
     inkscape:connector-curvature="0"
     sodipodi:nodetypes="ccscscscc" />
  <path
     d="M 4.6390273,7.3804637 C 4.8713092,7.767458 4.9266744,8.2018591 4.8058548,8.683363 4.6165144,9.1474126 4.3283489,9.4955712 3.9408546,9.7275763 3.5104736,9.9850756 3.0205736,10.04554 2.4702759,9.9073336 1.8769567,9.7952401 1.4514559,9.5239138 1.1938072,9.093867 0.98747976,8.7494222 0.9754239,8.2896543 1.1554188,7.7136729 1.293584,7.1636876 1.555751,6.7722612 1.9430113,6.5403586 3.0183866,5.8962293 3.9168473,6.1763734 4.638354,7.3806221 Z"
     style="font-style:normal;font-variant:normal;font-weight:normal;font-stretch:normal;font-size:10.5833px;line-height:125%;font-family:'Amatic SC';-inkscape-font-specification:'Amatic SC';letter-spacing:0px;word-spacing:0px;opacity:1;fill:#2c2c2c;fill-opacity:1;stroke:none;stroke-width:5.87708px;stroke-linecap:butt;stroke-linejoin:miter;stroke-opacity:1"
     id="path3491"
     inkscape:connector-curvature="0"
     sodipodi:nodetypes="ccscscscc" />
</svg>

<svg xmlns="http://www.w3.org/2000/svg" width="16" height="16"><path d="M11.463 8.785c-.227-.377-.281-.801-.163-1.27.185-.454.466-.793.844-1.02.42-.25.898-.31 1.435-.175.579.11.994.374 1.245.794.201.336.213.784.038 1.346-.135.537-.391.919-.769 1.145-1.05.629-1.926.355-2.63-.82zM6.332 7.4c-.226.376-.28.799-.162 1.267.184.452.464.79.841 1.016.42.25.896.31 1.43.175.578-.11.992-.373 1.243-.791.2-.335.212-.783.037-1.343-.134-.535-.39-.916-.766-1.141-1.046-.627-1.92-.354-2.622.817ZM4.639 7.38c.232.387.288.822.167 1.303-.19.464-.478.813-.865 1.045-.43.257-.92.318-1.47.18-.594-.113-1.02-.384-1.277-.814-.207-.345-.219-.804-.039-1.38.139-.55.4-.942.788-1.174 1.075-.644 1.974-.364 2.695.84Z" style="font-style:normal;font-variant:normal;font-weight:400;font-stretch:normal;font-size:10.5833px;line-height:125%;font-family:'Amatic SC';-inkscape-font-specification:'Amatic SC';letter-spacing:0;word-spacing:0;opacity:1;fill:#2c2c2c;fill-opacity:1;stroke:none;stroke-width:5.87708px;stroke-linecap:butt;stroke-linejoin:miter;stroke-opacity:1"/></svg>
